build/system/RedoOutline.svg

<svg xmlns="http://www.w3.org/2000/svg" fill="none" viewBox="0 0 24 24" focusable="false"><path d="M0 0H24V24H0z"/><path fill="#74767B" d="M18.8054 9.58723C19.0593 9.84107 19.0593 10.2526 18.8054 10.5065L15.145 14.1669C14.8912 14.4207 14.4796 14.4207 14.2258 14.1669C13.9719 13.913 13.9719 13.5015 14.2258 13.2476L16.7766 10.6969L8.64072 10.6969C7.34285 10.6969 6.29072 11.749 6.29072 13.0469L6.29072 13.3076C6.29072 14.6055 7.34285 15.6576 8.64072 15.6576L11.3412 15.6576C11.7002 15.6576 11.9912 15.9486 11.9912 16.3076C11.9912 16.6666 11.7002 16.9576 11.3412 16.9576L8.64072 16.9576C6.62488 16.9576 4.99072 15.3234 4.99072 13.3076L4.99072 13.0469C4.99072 11.031 6.62488 9.39685 8.64072 9.39685L16.7766 9.39685L14.2258 6.84607C13.9719 6.59223 13.9719 6.18067 14.2258 5.92683C14.4796 5.67299 14.8912 5.67299 15.145 5.92683L18.8054 9.58723Z"/></svg>

<svg xmlns="http://www.w3.org/2000/svg" fill="none" viewBox="0 0 24 24" focusable="false"><path fill="#74767B" d="M18.8 9.58c.25.26.25.67 0 .92l-3.66 3.66a.64.64 0 0 1-.92 0 .66.66 0 0 1 0-.92l2.55-2.55H8.64c-1.3 0-2.35 1.05-2.35 2.35v.26c0 1.3 1.05 2.35 2.35 2.35h2.7c.36 0 .65.29.65.65s-.29.65-.65.65h-2.7c-2.02 0-3.65-1.63-3.65-3.65v-.26c0-2.01 1.63-3.65 3.65-3.65h8.13l-2.55-2.55a.66.66 0 0 1 0-.92c.25-.25.67-.25.92 0z"/></svg>
